X: 18249
T: Humours Of Lissadell, The
R: reel
M: 4/4
K: Edorian
|:eB~B2 eadB|AF~F2 EDB,A,|B,E~E2 B,EGE|FB~B2 ABdf|
deed eadB|AF~F2 EDB,A,|B,E~E2 EFGA|1 B2ed eegf:|2 B2ed eefe||
|:dABd AAAB|d2 ff edef|df~f2 deed|afdf defe|
dgfd BBdB|BAFd ABd2|effe dfab|1 afdf defe:|2 afdf degf||

